X: 1535
T: Ok Gibi Hûblar
C: ?
O: Turkey
F: http://compmusic.upf.edu/node/140
N: muhayyer--divan--nimsofyan--ok_gibi--
N: makam= muhayyer
N: form= divan
N: usul= nimsofyan = 2/4
M: 2/4
L: 1/16
K: C _2/4B ^3/4f  
Q: 1/4=90
%%MIDI tuningsystem comma53
c2d2 e4  | d4 e4  | d2ef g2a2  | g2a2 g2=f2  | \
w:  ARANAĞME  |   |   |   | 
e4 d2c2  | d4 c2d2  | c4 B4  | 
w:   |   |   | 
G3A B2c2  | d2e2 f2g2  | fga_b agg=f  | \
w:   |   |   | 
=feed dccB  | 
w:   | 
dcd2 A4  | A3G c2BA  | A6e=f  | eddc d4  | \
w:   |   |   |   | 
edef g4  | 
w:   | 
fg.a2 agg=f  | =feed dccB  | dcd2 A4  | \
w:   |   |   | 
A2G2 c2BA  | 
w:   | 
A8  | z2a6  | a8  | a3g fefg  | a8  | z2g2 f2g2  | \
w:   |  Ah   |   |   |   |  ok  *  gi  | 
a4 a4  | a2de fga2  | 
w:  bi  hub  |  *  lar  *  *  *  be  | 
a4 c'2b2  | a2a4gf  | ge2d d4  | z2{f}g4f2  | \
w:  ni  yay  |  *  dan  ya  |  ba *  *  na   |  *  at  | 
c'b{c'}a4g^2/4f  | ge7  | 
w:  *  *  *  *  tı  |  lar    | 
A4 g^2/4fed  | c4 B4  | d2c2 d4  | edef g4  | \
w:  hey   |   |  SAZ  |   | 
fga_b agg=f  | 
w:   | 
=feed dccB  | dcd2 A4  | d2c2 d4  | edef g4  | \
w:   |   |  SAZ  |   | 
fga_b agg=f  | 
w:   | 
=feed dccB  | dcd2 A4  | z2c'6  | c'8  | z2c'4c'2  | \
w:   |   |  Ah   |   |  bil me  | 
c'4 c'2b2  | 
w:  di ler   | 
z2b4ba  | a4 a2{c'}ba  | a2a4gf  | geed d4  | \
w:  kad ri  |  mi  u  |  *  cuz  pa  |  ha *  *  *  ya   | 
z2g4f2  | {f}c'b{c'}a4g^2/4f  | 
w:  sat  |  *  *  *  *  *  tı  | 
ge7  | A4 g^2/4fed  | c4 B4  | dedc d4  | edef g4  | \
w:  lar    |  hey   |   |  SAZ  |   | 
fga_b agg=f  | 
w:   | 
=feed dccB  | dcd2 A4  | dedc d4  | edef g4  | 
w:   |   |  SAZ  |   | 
fga_b agg=f  | =feed dccB  | dcd2 A4  | \
w:   |   |   | 
g2a6  | 
w:  Ah   | 
a8  | z2g2 f2g2  | a4 a4  | a2de ^2/4fga2  | \
w:   |  ney *  di   |  vak tin  |  *  de  *  *  *  gü  | 
a4 g=fed  | z2e4ed  | 
w:  zel ler   |  bû se  | 
d2cB =f2ed  | z2c4BA  | A8  | z4 c'2c'b  | \
w:  ler  *  *  vaad_  |  et ti  |  ler    |  Bir  söz_  | 
c'bba a4  | z2de fga2  | 
w:  i *  *  *  le   |  hâ *  *  *  sı  | 
a4 c'2b2  | a2a4gf  | geed d2e2  | e2d4e2  | \
w:  lı  şu   |  *  gön lü  |  mü  *  *  *  al  |  *  dat tı  | 
d2c4(3BAB  | 
w:  *  lar    | 
d2c2 d4  | edef g4  | d3a g2=f2  | e2d2 c2B2  | \
w:  SAZ  |   |   |   | 
dcd2 A4  | A2G2 c2BA  | 
w:   |   | 
A8  | d2c2 d4  | edef g4  | d3a g2=f2  | e2d2 c2B2  | \
w:   |  SAZ  |   |   |   | 
dcd2 A4  | 
w:   | 
A2G2 c2BA  | A8  | fgab c'4  | {b}aga6  | c'2c'2 c'2b2  | \
w:   |   |  Yâr  SERBEST  |   |  ha ni  ya   | 
b3a a4  | 
w:  sâ *  dık   | 
a2a4a2  | a2a2 a4  | g4 f2e2  | a4 g2fe  | \
w:  de yû  meth_  |  et ti ğin   |  ol  nev  |  ci van    | 
d2z2 g2f2  | g2a4c'2  | b2ba a2a2  | 
w:  *  Dün   |  ge ce  ol   |  *  dil *  be ri   | 
a2a2 f2g2  | f2g4e2  | d2ed d4  | a4 g=fed  | \
w:  *  bir  *  bâ  |  *  de ye   |  *  oy *  nat  |  tı lar    | 
c4 B4  | d2c2 d4  | 
w:   |  SAZ  | 
edef g4  | d3a g2=f2  | e2d2 c2B2  | dcd2 A4  | \
w:   |   |   |   | 
d2c2 d4  | edef g4  | 
w:  SAZ  |   | 
d3a g2=f2  | e2d2 c2B2  | dcd2 A4  | c2d6  | d8  | \
w:   |   |   |  Hey   |   | 
z2g2 e2e2  | e4 e3d  | 
w:  gör *  düm  |  ol  hû  | 
d2g2 f2g2  | e4 e2d2  | d2g2 f2g2  | e3d d3c  | \
w:  *  ri  *  sı  |  fat  ağ  |  *  yâr  *  i  |  le  *  ül  | 
c2e2 d2e2  | d2c4(3BAB  | 
w:  *  fet  *  ey  |  ler    | 
dedc d4  | e3f g4  | fga_b agg=f  | =feed dccB  | 
w:  SAZ  |   |   |   | 
dcd2 A4  | dedc d4  | e3f g4  | fga_b agg=f  | \
w:   |  SAZ  |   |   | 
=feed dccB  | 
w:   | 
dcd2 A4  | G2A6  | A8  | z4 A2B2  | d4 {d}c2BA  | \
w:   |  Ah   |   |  has re  |  tin *  den   | 
B4 A3B  | c2d2 c2BA  | 
w:  *  Dert li  |  yi  *  top  | 
B4 A3B  | c2d2 c2BA  | B2d2 c2d2  | c2B4c2  | \
w:  *  lar  gi  |  bi  *  pat  |  *  lat *  tı  |  lar    | 
B4 A4  | AcBA G2A2  | 
w:   |   | 
c2BA A4  | |


